X: 12
T: Zhengyue shiwu na yitian
%%abc-version 2.0
%%abcx-abcm2ps-target-version 5.9.1 (29 Sep 2008)
%%abc-creator hum2abc beta
%%abcx-conversion-date 2013/10/02 07:44:27
%%abc-edited-by Helmut Schaffrath
%%humdrum-veritas 839136496
%%humdrum-veritas-data 3925095991
%%continueall 1
%%barnumbers 0
L: 1/8
M: 3/4
K: D
e e d d [I:setbarnb 1]| 
BA3 | 
A d d e | 
d2d2 | 
B A F E | 
D B,D2 | 
D F E D | 
B,B,3 | 
d2e2 | 
e2d2 | 
B A F E | 
D B,D2 |]  



